assets/icons/24px/stroke/sports-24px.svg

<svg width="24" height="24" viewBox="0 0 24 24" fill="none" xmlns="http://www.w3.org/2000/svg">
<path fill-rule="evenodd" clip-rule="evenodd" d="M12 4C7.58172 4 4 7.58172 4 12C4 16.4183 7.58172 20 12 20C16.4183 20 20 16.4183 20 12C20 7.58172 16.4183 4 12 4ZM2 12C2 6.47715 6.47715 2 12 2C17.5228 2 22 6.47715 22 12C22 17.5228 17.5228 22 12 22C6.47715 22 2 17.5228 2 12Z" fill="white"/>
<path fill-rule="evenodd" clip-rule="evenodd" d="M11.3646 8.63208C11.7186 8.36334 12.2076 8.36053 12.5647 8.62518L15.1668 10.5538C15.4779 10.7843 15.6279 11.1736 15.552 11.5533L14.9091 14.7676C14.8157 15.235 14.4052 15.5714 13.9286 15.5714H10.0714C9.59474 15.5714 9.18432 15.235 9.09084 14.7676L8.44798 11.5533C8.37287 11.1777 8.51887 10.7922 8.82394 10.5606L11.3646 8.63208ZM11.9764 10.6786L10.5319 11.7751L10.8912 13.5714H13.1088L13.4665 11.7829L11.9764 10.6786Z" fill="white"/>
<path fill-rule="evenodd" clip-rule="evenodd" d="M7.47347 10.021C7.50225 10.2965 7.37685 10.5654 7.14732 10.7205L3.41976 13.2382C3.07651 13.47 2.6103 13.3797 2.37846 13.0364C2.14662 12.6932 2.23693 12.227 2.58019 11.9951L5.93483 9.72932L5.51423 5.70306C5.47119 5.29109 5.77028 4.92223 6.18225 4.8792C6.59422 4.83616 6.96308 5.13524 7.00611 5.54721L7.47347 10.021Z" fill="white"/>
<path fill-rule="evenodd" clip-rule="evenodd" d="M16.723 10.6667C16.4935 10.5117 16.3681 10.2428 16.3969 9.9673L16.8643 5.49348C16.9073 5.08151 17.2761 4.78243 17.6881 4.82546C18.1001 4.8685 18.3992 5.23736 18.3561 5.64933L17.9355 9.67558L21.2902 11.9414C21.6334 12.1733 21.7237 12.6395 21.4919 12.9827C21.2601 13.326 20.7939 13.4163 20.4506 13.1844L16.723 10.6667Z" fill="white"/>
<path fill-rule="evenodd" clip-rule="evenodd" d="M14.7009 16.4654C14.7998 16.2222 15.0186 16.0484 15.2779 16.0071L19.7202 15.3006C20.1293 15.2356 20.5137 15.5145 20.5787 15.9235C20.6438 16.3326 20.3649 16.717 19.9558 16.782L15.9312 17.4221L14.6233 20.6396C14.4674 21.0233 14.0298 21.2079 13.6461 21.0519C13.2624 20.896 13.0778 20.4584 13.2338 20.0747L14.7009 16.4654Z" fill="white"/>
<path fill-rule="evenodd" clip-rule="evenodd" d="M12.3859 6.85738C12.1483 6.99989 11.8516 6.99989 11.6141 6.85738L7.75697 4.5431C7.40178 4.32999 7.28661 3.86929 7.49972 3.51411C7.71283 3.15892 8.17353 3.04375 8.52871 3.25686L12 5.33962L15.4713 3.25686C15.8264 3.04375 16.2871 3.15892 16.5002 3.51411C16.7134 3.86929 16.5982 4.32999 16.243 4.5431L12.3859 6.85738Z" fill="white"/>
<path fill-rule="evenodd" clip-rule="evenodd" d="M8.72207 16.0071C8.98136 16.0483 9.20021 16.2221 9.29907 16.4654L10.7662 20.0747C10.9222 20.4584 10.7376 20.8959 10.3538 21.0519C9.97012 21.2079 9.5326 21.0232 9.37662 20.6395L8.06876 17.422L4.04415 16.782C3.63507 16.7169 3.35619 16.3326 3.42125 15.9235C3.48631 15.5144 3.87066 15.2356 4.27974 15.3006L8.72207 16.0071Z" fill="white"/>
</svg>

<svg width="24" height="24" fill="none" xmlns="http://www.w3.org/2000/svg"><path fill-rule="evenodd" clip-rule="evenodd" d="M12 4a8 8 0 1 0 0 16 8 8 0 0 0 0-16zM2 12C2 6.477 6.477 2 12 2s10 4.477 10 10-4.477 10-10 10S2 17.523 2 12z" fill="#fff"/><path fill-rule="evenodd" clip-rule="evenodd" d="M11.365 8.632a1 1 0 0 1 1.2-.007l2.602 1.929a1 1 0 0 1 .385 1l-.643 3.214a1 1 0 0 1-.98.803H10.07a1 1 0 0 1-.98-.803l-.643-3.215a1 1 0 0 1 .376-.992l2.54-1.929zm.611 2.047l-1.444 1.096.36 1.796h2.217l.357-1.788-1.49-1.104zm-4.503-.658a.75.75 0 0 1-.326.7L3.42 13.237a.75.75 0 0 1-.84-1.243L5.935 9.73l-.42-4.026a.75.75 0 0 1 1.491-.156l.467 4.474zm9.25.646a.75.75 0 0 1-.326-.7l.467-4.474a.75.75 0 1 1 1.492.156l-.42 4.027 3.354 2.265a.75.75 0 0 1-.84 1.243l-3.727-2.517zm-2.022 5.798a.75.75 0 0 1 .577-.458l4.442-.706a.75.75 0 0 1 .236 1.481l-4.025.64-1.308 3.218a.75.75 0 1 1-1.39-.565l1.468-3.61zm-2.315-9.608a.75.75 0 0 1-.772 0L7.757 4.543a.75.75 0 1 1 .772-1.286L12 5.34l3.471-2.083a.75.75 0 1 1 .772 1.286l-3.857 2.314zm-3.664 9.15a.75.75 0 0 1 .577.458l1.467 3.61a.75.75 0 1 1-1.39.565L8.07 17.422l-4.025-.64a.75.75 0 0 1 .236-1.481l4.442.706z" fill="#fff"/></svg>
